packages/tokens/icons/lightning/size16Px.svg

<svg viewBox="0 0 16 16" fill="none" xmlns="http://www.w3.org/2000/svg" width="1em" height="1em"><path d="M3.2 7.9L7.7 1.9C8.27661 1.13119 9.5 1.53899 9.5 2.5V5.5C9.5 6.05228 9.94772 6.5 10.5 6.5H12C12.824 6.5 13.2944 7.44076 12.8 8.1L8.3 14.1C7.72339 14.8688 6.5 14.461 6.5 13.5L6.5 10.5C6.5 9.94772 6.05228 9.5 5.5 9.5H4C3.17595 9.5 2.70557 8.55924 3.2 7.9Z" stroke="currentColor" stroke-linecap="round" stroke-linejoin="round"/></svg>

<svg xmlns="http://www.w3.org/2000/svg" fill="none" viewBox="0 0 16 16" width="1em" height="1em"><path stroke="currentColor" stroke-linecap="round" stroke-linejoin="round" d="m3.2 7.9 4.5-6c.577-.769 1.8-.361 1.8.6v3a1 1 0 0 0 1 1H12a1 1 0 0 1 .8 1.6l-4.5 6c-.577.769-1.8.361-1.8-.6v-3a1 1 0 0 0-1-1H4a1 1 0 0 1-.8-1.6Z"/></svg>
